svgs/solid/pig.svg

<svg xmlns="http://www.w3.org/2000/svg" viewBox="0 0 576 512"><!-- Font Awesome Pro 6.0.0-alpha2 by @fontawesome - https://fontawesome.com License - https://fontawesome.com/license (Commercial License) --><path d="M559.999 192H530.498C521.747 172 508.872 154.25 493.121 139.5L511.997 64H479.995C450.619 64 424.618 77.5 406.992 98.375C399.366 97.25 391.866 96 383.991 96H255.984C178.606 96 113.978 151 99.227 224H55.975C41.224 224 29.473 210.5 32.474 195.25C34.599 183.875 45.349 176 56.975 176H57.975C61.225 176 63.975 173.25 63.975 170.001V150.001C63.975 146.75 61.225 144 57.975 144C29.473 144 4.097 164.375 0.472 192.625C-3.903 226.75 22.723 256 55.975 256H95.977C95.977 308.125 121.353 354.125 159.98 383.25V448C159.98 465.673 174.307 480 191.981 480H223.983C241.657 480 255.984 465.673 255.984 448V416H383.991V448C383.991 465.673 398.318 480 415.992 480H447.994C465.668 480 479.995 465.673 479.995 448V383.25C491.871 374.375 502.371 363.875 511.247 352H559.999C568.836 352 576 344.837 576 336V208C576 199.163 568.836 192 559.999 192ZM431.993 256C423.118 256 415.992 248.875 415.992 240S423.118 224 431.993 224S447.994 231.125 447.994 240S440.868 256 431.993 256Z"/></svg>

<svg xmlns="http://www.w3.org/2000/svg" viewBox="0 0 576 512"><!-- Font Awesome Pro 5.15.1 by @fontawesome - https://fontawesome.com License - https://fontawesome.com/license (Commercial License) --><path d="M560 192h-29.51c-8.77-20.04-21.64-37.71-37.38-52.46L512 64h-32c-29.4 0-55.39 13.5-73 34.32-7.57-1.1-15.12-2.32-23-2.32H256c-77.4 0-141.95 54.97-156.78 128H56c-14.8 0-26.51-13.46-23.54-28.78C34.68 183.82 45.34 176 56.95 176h1.01c3.34 0 6.04-2.71 6.04-6.04v-19.92c0-3.34-2.71-6.04-6.04-6.04C29.5 144 4.1 164.4.47 192.62-3.91 226.77 22.7 256 56 256h40c0 52.18 25.35 98.07 64 127.28V464c0 8.84 7.16 16 16 16h64c8.84 0 16-7.16 16-16v-48h128v48c0 8.84 7.16 16 16 16h64c8.84 0 16-7.16 16-16v-80.72A160.09 160.09 0 0 0 511.28 352H560c8.84 0 16-7.16 16-16V208c0-8.84-7.16-16-16-16zm-128 64c-8.84 0-16-7.16-16-16s7.16-16 16-16 16 7.16 16 16-7.16 16-16 16z"/></svg>
